.local/share/icons/Gruvbox-Plus-Dark/mimetypes/scalable/application-msexcel.svg

<svg width="256" height="256" viewBox="0 0 256 256" fill="none" xmlns="http://www.w3.org/2000/svg">
<g clip-path="url(#clip0)">
<g opacity="0.4" filter="url(#filter0_f)">
<path d="M55.0839 15.5636H155.608L216.009 75.7129L216.011 224.609C216.011 233.52 208.749 240.737 199.838 240.737H55.0838C46.1734 240.737 39 233.564 39 224.654V31.6474C39 22.737 46.1734 15.5636 55.0838 15.5636H55.0839Z" fill="#282828"/>
</g>
<path d="M55.0839 15H155.608L216.009 75.1493L216.011 224.045C216.011 232.956 208.749 240.174 199.838 240.174H55.0838C46.1734 240.174 39 233 39 224.09V31.0838C39 22.1734 46.1734 15 55.0838 15H55.0839Z" fill="#ebdbb2"/>
<path fill-rule="evenodd" clip-rule="evenodd" d="M155.609 22.9787H55.0839C50.58 22.9787 46.9787 26.5799 46.9787 31.0838V224.09C46.9787 228.594 50.5799 232.195 55.0838 232.195H199.838C204.371 232.195 208.032 228.521 208.032 224.046V75.1493L155.609 22.9787ZM155.608 15H55.0839C46.1735 15 39 22.1734 39 31.0838V224.09C39 233 46.1734 240.174 55.0838 240.174H199.838C208.749 240.174 216.011 232.956 216.011 224.045L216.009 75.1493L155.608 15Z" fill="url(#paint0_linear)"/>
<path d="M133.033 68C111.365 71.7215 89.6797 76.6579 68.0075 80.3106C68.0075 112.104 67.9907 143.909 68.0075 175.718C89.5664 179.354 111.134 184.21 132.651 188H139.109V68H133.033ZM118.566 105.406C114.799 112.869 110.997 120.316 107.161 127.747C111.045 135.38 115.018 142.961 118.919 150.594C115.518 150.404 112.12 150.198 108.715 149.967C106.313 144.281 103.382 138.79 101.66 132.845C99.7369 138.381 96.999 143.601 94.7902 149.027C91.6954 148.987 88.6005 148.865 85.5015 148.74C89.1338 141.884 92.6402 134.971 96.3859 128.156C93.2071 121.134 89.7175 114.25 86.4337 107.272C89.5454 107.094 92.657 106.92 95.7686 106.754C97.8725 112.083 100.178 117.344 101.916 122.811C103.781 117.02 106.565 111.565 108.954 105.964C112.146 105.746 115.358 105.555 118.571 105.406H118.566ZM143.552 85.1417V93.7146H156.884V102.283H143.552V106.572H156.884V115.157H143.552V119.429H156.884V127.998H143.552V132.286H156.884V140.855H143.552V145.144H156.884V153.713H143.552V158.001H156.884V166.57H143.552V175.143H188.001V85.1417H143.552ZM161.331 93.7146H179.107V102.283H161.331V93.7146ZM161.331 106.572H179.107V115.157H161.331V106.572ZM161.331 119.429H179.107V127.998H161.331V119.429ZM161.331 132.286H179.107V140.855H161.331V132.286ZM161.331 145.144H179.107V153.713H161.331V145.144ZM161.331 158.001H179.107V166.57H161.331V158.001Z" fill="url(#paint1_linear)"/>
<path opacity="0.25" d="M155.608 17V61.2306C155.608 70.141 162.867 77.1605 171.777 77.1605L216.009 77.1493V75.1493L155.608 17Z" fill="#282828"/>
<path d="M155.608 15V59.2306C155.608 68.141 162.867 75.1605 171.777 75.1605L216.009 75.1493L155.608 15Z" fill="url(#paint2_linear)"/>
</g>
<defs>
<filter id="filter0_f" x="23.8778" y="0.441412" width="207.255" height="255.418" filterUnits="userSpaceOnUse" color-interpolation-filters="sRGB">
<feFlood flood-opacity="0" result="BackgroundImageFix"/>
<feBlend mode="normal" in="SourceGraphic" in2="BackgroundImageFix" result="shape"/>
<feGaussianBlur stdDeviation="7.5611" result="effect1_foregroundBlur"/>
</filter>
<linearGradient id="paint0_linear" x1="39" y1="15" x2="39" y2="240.174" gradientUnits="userSpaceOnUse">
<stop offset="1e-07" stop-color="#689d6a"/>
<stop offset="1" stop-color="#427b58"/>
</linearGradient>
<linearGradient id="paint1_linear" x1="68" y1="68" x2="68" y2="188" gradientUnits="userSpaceOnUse">
<stop offset="1e-07" stop-color="#689d6a"/>
<stop offset="1" stop-color="#427b58"/>
</linearGradient>
<linearGradient id="paint2_linear" x1="155.608" y1="15" x2="155.608" y2="75.1605" gradientUnits="userSpaceOnUse">
<stop offset="1e-07" stop-color="#689d6a"/>
<stop offset="1" stop-color="#427b58"/>
</linearGradient>
<clipPath id="clip0">
<rect width="256" height="256" fill="#ebdbb2"/>
</clipPath>
</defs>
</svg>

<svg width="256" height="256" fill="none" version="1.1" viewBox="0 0 256 256" xmlns="http://www.w3.org/2000/svg">
  <path d="m55.08 15h100.5l60.4 60.15 2e-3 148.9c0 8.911-7.262 16.13-16.17 16.13h-144.8c-8.91 0-16.08-7.174-16.08-16.08v-193c0-8.91 7.173-16.08 16.08-16.08h1e-4z" fill="#ebdbb2"/>
  <path d="m155.6 22.98h-100.5c-4.504 0-8.105 3.601-8.105 8.105v193c0 4.504 3.601 8.105 8.105 8.105h144.8c4.533 0 8.194-3.674 8.194-8.149v-148.9l-52.42-52.17zm-1e-3 -7.979h-100.5c-8.91 0-16.08 7.173-16.08 16.08v193c0 8.91 7.173 16.08 16.08 16.08h144.8c8.911 0 16.17-7.218 16.17-16.13l-2e-3 -148.9-60.4-60.15z" clip-rule="evenodd" fill="url(#paint0_linear)" fill-rule="evenodd"/>
  <path d="m133 68c-21.67 3.722-43.35 8.658-65.03 12.31 0 31.79-0.0168 63.6 0 95.41 21.56 3.636 43.13 8.492 64.64 12.28h6.458v-120h-6.076zm-14.47 37.41c-3.767 7.463-7.569 14.91-11.4 22.34 3.884 7.633 7.857 15.21 11.76 22.85-3.401-0.19-6.799-0.396-10.2-0.627-2.402-5.686-5.333-11.18-7.055-17.12-1.923 5.536-4.661 10.76-6.87 16.18-3.095-0.04-6.19-0.162-9.289-0.287 3.632-6.856 7.139-13.77 10.88-20.58-3.179-7.022-6.668-13.91-9.952-20.88 3.112-0.178 6.223-0.352 9.335-0.518 2.104 5.329 4.409 10.59 6.147 16.06 1.865-5.791 4.649-11.25 7.038-16.85 3.192-0.218 6.404-0.409 9.617-0.558h-5e-3zm24.99-20.26v8.573h13.33v8.568h-13.33v4.289h13.33v8.585h-13.33v4.272h13.33v8.569h-13.33v4.288h13.33v8.569h-13.33v4.289h13.33v8.569h-13.33v4.288h13.33v8.569h-13.33v8.573h44.45v-90h-44.45zm17.78 8.573h17.78v8.568h-17.78v-8.568zm0 12.86h17.78v8.585h-17.78v-8.585zm0 12.86h17.78v8.569h-17.78v-8.569zm0 12.86h17.78v8.569h-17.78v-8.569zm0 12.86h17.78v8.569h-17.78v-8.569zm0 12.86h17.78v8.569h-17.78v-8.569z" fill="url(#paint1_linear)"/>
  <path d="m155.6 17v44.23c0 8.91 7.259 15.93 16.17 15.93l44.23-0.0112v-2l-60.4-58.15z" fill="#282828" opacity=".25"/>
  <path d="m155.6 15v44.23c0 8.91 7.259 15.93 16.17 15.93l44.23-0.0112-60.4-60.15z" fill="url(#paint2_linear)"/>
  <defs>
    <linearGradient id="paint0_linear" x1="39" x2="39" y1="15" y2="240.2" gradientUnits="userSpaceOnUse">
      <stop stop-color="#689d6a" offset="1e-7"/>
      <stop stop-color="#427b58" offset="1"/>
    </linearGradient>
    <linearGradient id="paint1_linear" x1="68" x2="68" y1="68" y2="188" gradientUnits="userSpaceOnUse">
      <stop stop-color="#689d6a" offset="1e-7"/>
      <stop stop-color="#427b58" offset="1"/>
    </linearGradient>
    <linearGradient id="paint2_linear" x1="155.6" x2="155.6" y1="15" y2="75.16" gradientUnits="userSpaceOnUse">
      <stop stop-color="#689d6a" offset="1e-7"/>
      <stop stop-color="#427b58" offset="1"/>
    </linearGradient>
  </defs>
</svg>
